src/assets/mh-icons/Great_Sword_Rank_01.svg

<?xml version="1.0" encoding="UTF-8" standalone="no"?>
<svg
   width="100%"
   height="100%"
   viewBox="0 0 64 64"
   version="1.1"
   xml:space="preserve"
   style="fill-rule:evenodd;clip-rule:evenodd;stroke-linejoin:round;stroke-miterlimit:2;"
   id="svg5857"
   sodipodi:docname="Great_Sword_Rank_01.svg"
   inkscape:version="1.2.2 (732a01da63, 2022-12-09)"
   xmlns:inkscape="http://www.inkscape.org/namespaces/inkscape"
   xmlns:sodipodi="http://sodipodi.sourceforge.net/DTD/sodipodi-0.dtd"
   xmlns="http://www.w3.org/2000/svg"
   xmlns:svg="http://www.w3.org/2000/svg"><defs
   id="defs5861">
        
    
            
        
                
                
                
            </defs><sodipodi:namedview
   id="namedview5859"
   pagecolor="#505050"
   bordercolor="#eeeeee"
   borderopacity="1"
   inkscape:showpageshadow="0"
   inkscape:pageopacity="0"
   inkscape:pagecheckerboard="0"
   inkscape:deskcolor="#505050"
   showgrid="false"
   inkscape:zoom="16.046875"
   inkscape:cx="32.062317"
   inkscape:cy="31.968841"
   inkscape:window-width="3440"
   inkscape:window-height="1377"
   inkscape:window-x="-8"
   inkscape:window-y="-8"
   inkscape:window-maximized="1"
   inkscape:current-layer="svg5857" />
    <path
   id="background"
   style="fill-opacity:1;fill:none;stroke:#000000;stroke-opacity:1;stroke-width:4;stroke-dasharray:none"
   d="M 42.640625 4.9902344 C 38.574531 4.9784219 28.711994 5.2880057 23 11 C 15.472008 18.527992 14 23.905005 14 29 L 14 53 L 23.607422 48.5625 L 29.314453 46.009766 L 29.314453 46.007812 L 31.974609 44.869141 C 32.003643 45.78031 32.071413 46.814745 32.21875 47.917969 C 31.994896 47.958231 32 48.114645 32 49 C 32 49.562976 32.234861 49.849031 32.587891 49.966797 C 32.927423 51.447296 33.438094 52.885059 34.212891 54.03125 C 33.953184 54.540216 33.958975 55.051856 34.5 55.589844 C 34.98655 56.077565 35.496473 56.050066 35.988281 55.798828 C 36.86181 56.385732 37.903855 56.818466 39.003906 57.142578 C 39.056119 58.143392 42.525708 59.683245 43.480469 58.730469 C 43.638167 58.571459 43.752459 58.297364 43.833984 57.962891 C 46.180527 58.131641 48 58 48 58 L 49 58 L 49 54 L 48 54 L 47 54 L 47 54.056641 C 46.161065 54.062158 44.897569 53.962715 43.523438 53.447266 C 43.36775 53.048913 43.182095 52.789062 42.976562 52.789062 C 42.849867 52.789062 42.67721 52.864358 42.482422 52.976562 C 41.803053 52.614607 41.124773 52.14116 40.492188 51.509766 C 40.416402 51.433862 40.344894 51.353864 40.273438 51.273438 C 40.430855 50.871847 40.440891 50.508751 40.183594 50.25 C 39.966598 50.034231 39.695283 49.955823 39.388672 49.976562 C 38.948498 49.154016 38.638941 48.233611 38.421875 47.298828 C 38.969203 46.733571 39.256368 46.128983 38.746094 45.619141 C 38.422643 45.296237 38.229867 45.124136 38.054688 45.074219 C 37.945839 44.004432 37.929504 43.040513 37.941406 42.310547 L 41 41 C 41 41 39 33.879991 39 25 C 39 16.89668 47.324126 8.5974839 47.259766 7.2070312 C 47.259866 7.2062675 47.265625 7.2018588 47.265625 7.2011719 C 47.265625 6.5801725 45.263999 5 44 5 C 43.68475 5 43.221496 4.9919219 42.640625 4.9902344 z " />
<g
   transform="matrix(1,0,0,1,0,-64)"
   id="g6353">
        <g
   transform="matrix(1,0,0,1,-64,-896)"
   id="g6351">
            <g
   id="g6349">
                <path
   id="base"
   d="m 96,1002 c 0,0 -0.679,9.32 3,13 3.679,3.68 13,3 13,3 v -4 c 0,0 -4.321,0.69 -7.507,-2.49 C 101.308,1008.32 102,1001 102,1001 Z m -8.497,6.61 5.811,-2.6 L 93,982 c 0,0 18.265,-14.384 18.265,-14.798 0,-0.621 -2.001,-2.202 -3.265,-2.202 -1.264,0 -20,14 -20,14 z M 102.5,981.5 h -8 v 19 h 8 z"
   style="display:inline;fill:#1f1f1f;fill-opacity:1"
   inkscape:label="base" />
                <path
   id="path6345"
   d="M91,1007L105,1001C105,1001 103,993.88 103,985C103,976.12 113.002,967 111,967C108.998,967 101.571,971.581 99,974C96.429,976.419 91,980.677 91,987L91,1007ZM98.5,993C100.432,993 102,994.568 102,996.5C102,998.432 100.432,1000 98.5,1000C96.568,1000 95,998.432 95,996.5C95,994.568 96.568,993 98.5,993ZM98.5,982C100.432,982 102,983.568 102,985.5C102,987.432 100.432,989 98.5,989C96.568,989 95,987.432 95,985.5C95,983.568 96.568,982 98.5,982Z"
   style="fill:rgb(107,107,107);" />
                <path
   id="path6347"
   d="M106.977,1012.79C107.894,1012.79 108.443,1017.76 107.481,1018.73C106.519,1019.69 103,1018.12 103,1017.12C103,1016.12 106.06,1012.79 106.977,1012.79ZM113,1014L111,1014L111,1018L113,1018L113,1014ZM104.184,1010.25C105.069,1011.14 102.851,1013.25 102,1014C101.149,1014.75 99.747,1016.84 98.5,1015.59C97.253,1014.35 98.759,1013.25 100.132,1012C101.506,1010.75 103.299,1009.37 104.184,1010.25ZM89,1007.92L78,1013L78,989C78,983.905 79.472,978.528 87,971C93.528,964.472 105.478,965 108,965C110.522,965 101.951,968.588 96,974C90.668,978.849 89,982.639 89,987L89,1007.92ZM102.747,1005.62C103.928,1006.8 100.921,1008.5 100,1009C99.079,1009.5 96,1011.06 96,1009C96,1006.94 95.891,1008.79 99,1007C102.109,1005.21 101.565,1004.44 102.747,1005.62ZM98.5,995C99.328,995 100,995.672 100,996.5C100,997.328 99.328,998 98.5,998C97.672,998 97,997.328 97,996.5C97,995.672 97.672,995 98.5,995ZM98.5,984C99.328,984 100,984.672 100,985.5C100,986.328 99.328,987 98.5,987C97.672,987 97,986.328 97,985.5C97,984.672 97.672,984 98.5,984Z"
   style="fill:rgb(181,181,181);" />
            </g>
        </g>
    </g></svg>

<?xml version="1.0" encoding="UTF-8" standalone="no"?>
<svg
   width="100%"
   height="100%"
   viewBox="0 0 64 64"
   version="1.1"
   xml:space="preserve"
   style="fill-rule:evenodd;clip-rule:evenodd;stroke-linejoin:round;stroke-miterlimit:2;"
   id="svg5857"
   sodipodi:docname="Great_Sword_Rank_01.svg"
   inkscape:version="1.2.2 (732a01da63, 2022-12-09)"
   xmlns:inkscape="http://www.inkscape.org/namespaces/inkscape"
   xmlns:sodipodi="http://sodipodi.sourceforge.net/DTD/sodipodi-0.dtd"
   xmlns="http://www.w3.org/2000/svg"
   xmlns:svg="http://www.w3.org/2000/svg"><defs
   id="defs5861">
        
    
            
        
                
                
                
            </defs><sodipodi:namedview
   id="namedview5859"
   pagecolor="#505050"
   bordercolor="#eeeeee"
   borderopacity="1"
   inkscape:showpageshadow="0"
   inkscape:pageopacity="0"
   inkscape:pagecheckerboard="0"
   inkscape:deskcolor="#505050"
   showgrid="false"
   inkscape:zoom="16.046875"
   inkscape:cx="32"
   inkscape:cy="31.968841"
   inkscape:window-width="3440"
   inkscape:window-height="1377"
   inkscape:window-x="-8"
   inkscape:window-y="-8"
   inkscape:window-maximized="1"
   inkscape:current-layer="svg5857" />
    <path
   id="background"
   style="fill-opacity:1;fill:none;stroke:#000000;stroke-opacity:1;stroke-width:4;stroke-dasharray:none"
   d="M 42.640625 4.9902344 C 38.574531 4.9784219 28.711994 5.2880057 23 11 C 15.472008 18.527992 14 23.905005 14 29 L 14 53 L 23.607422 48.5625 L 29.314453 46.009766 L 29.314453 46.007812 L 31.974609 44.869141 C 32.003643 45.78031 32.071413 46.814745 32.21875 47.917969 C 31.994896 47.958231 32 48.114645 32 49 C 32 49.562976 32.234861 49.849031 32.587891 49.966797 C 32.927423 51.447296 33.438094 52.885059 34.212891 54.03125 C 33.953184 54.540216 33.958975 55.051856 34.5 55.589844 C 34.98655 56.077565 35.496473 56.050066 35.988281 55.798828 C 36.86181 56.385732 37.903855 56.818466 39.003906 57.142578 C 39.056119 58.143392 42.525708 59.683245 43.480469 58.730469 C 43.638167 58.571459 43.752459 58.297364 43.833984 57.962891 C 46.180527 58.131641 48 58 48 58 L 49 58 L 49 54 L 48 54 L 47 54 L 47 54.056641 C 46.161065 54.062158 44.897569 53.962715 43.523438 53.447266 C 43.36775 53.048913 43.182095 52.789062 42.976562 52.789062 C 42.849867 52.789062 42.67721 52.864358 42.482422 52.976562 C 41.803053 52.614607 41.124773 52.14116 40.492188 51.509766 C 40.416402 51.433862 40.344894 51.353864 40.273438 51.273438 C 40.430855 50.871847 40.440891 50.508751 40.183594 50.25 C 39.966598 50.034231 39.695283 49.955823 39.388672 49.976562 C 38.948498 49.154016 38.638941 48.233611 38.421875 47.298828 C 38.969203 46.733571 39.256368 46.128983 38.746094 45.619141 C 38.422643 45.296237 38.229867 45.124136 38.054688 45.074219 C 37.945839 44.004432 37.929504 43.040513 37.941406 42.310547 L 41 41 C 41 41 39 33.879991 39 25 C 39 16.89668 47.324126 8.5974839 47.259766 7.2070312 C 47.259866 7.2062675 47.265625 7.2018588 47.265625 7.2011719 C 47.265625 6.5801725 45.263999 5 44 5 C 43.68475 5 43.221496 4.9919219 42.640625 4.9902344 z " />
<g
   transform="matrix(1,0,0,1,0,-64)"
   id="g6353">
        <g
   transform="matrix(1,0,0,1,-64,-896)"
   id="g6351">
            <g
   id="g6349">
                <path
   id="path6343"
   d="M96,1002C96,1002 95.321,1011.32 99,1015C102.679,1018.68 112,1018 112,1018L112,1014C112,1014 107.679,1014.69 104.493,1011.51C101.308,1008.32 102,1001 102,1001L96,1002ZM87.503,1008.61L93.314,1006.01L93,982C93,982 111.265,967.616 111.265,967.202C111.265,966.581 109.264,965 108,965C106.736,965 88,979 88,979L87.503,1008.61ZM102.5,981.5L94.5,981.5L94.5,1000.5L102.5,1000.5L102.5,981.5Z"
   style="fill-opacity:1;fill:#1f1f1f" />
                <path
   id="path6345"
   d="M91,1007L105,1001C105,1001 103,993.88 103,985C103,976.12 113.002,967 111,967C108.998,967 101.571,971.581 99,974C96.429,976.419 91,980.677 91,987L91,1007ZM98.5,993C100.432,993 102,994.568 102,996.5C102,998.432 100.432,1000 98.5,1000C96.568,1000 95,998.432 95,996.5C95,994.568 96.568,993 98.5,993ZM98.5,982C100.432,982 102,983.568 102,985.5C102,987.432 100.432,989 98.5,989C96.568,989 95,987.432 95,985.5C95,983.568 96.568,982 98.5,982Z"
   style="fill:rgb(107,107,107);" />
                <path
   id="path6347"
   d="M106.977,1012.79C107.894,1012.79 108.443,1017.76 107.481,1018.73C106.519,1019.69 103,1018.12 103,1017.12C103,1016.12 106.06,1012.79 106.977,1012.79ZM113,1014L111,1014L111,1018L113,1018L113,1014ZM104.184,1010.25C105.069,1011.14 102.851,1013.25 102,1014C101.149,1014.75 99.747,1016.84 98.5,1015.59C97.253,1014.35 98.759,1013.25 100.132,1012C101.506,1010.75 103.299,1009.37 104.184,1010.25ZM89,1007.92L78,1013L78,989C78,983.905 79.472,978.528 87,971C93.528,964.472 105.478,965 108,965C110.522,965 101.951,968.588 96,974C90.668,978.849 89,982.639 89,987L89,1007.92ZM102.747,1005.62C103.928,1006.8 100.921,1008.5 100,1009C99.079,1009.5 96,1011.06 96,1009C96,1006.94 95.891,1008.79 99,1007C102.109,1005.21 101.565,1004.44 102.747,1005.62ZM98.5,995C99.328,995 100,995.672 100,996.5C100,997.328 99.328,998 98.5,998C97.672,998 97,997.328 97,996.5C97,995.672 97.672,995 98.5,995ZM98.5,984C99.328,984 100,984.672 100,985.5C100,986.328 99.328,987 98.5,987C97.672,987 97,986.328 97,985.5C97,984.672 97.672,984 98.5,984Z"
   style="fill:rgb(181,181,181);" />
            </g>
        </g>
    </g></svg>
